X:1
T:Miss Betty Hunter
L:1/8
M:C|
R:Reel
B:The Athole Collection
S:The Fiddler's Companion
K:C
f | "C"edcB    c2Gc |    AcGc "G7"EDDf | "C"edcB     c2Gc | "F"Ac"G7"Gc "C"ECC :|
F | "C"ECEG "F"cGAF | "C"ECEG "G7"FDDF | "C"ECEG  "F"cGAF | "G7"EGDF    "C"ECC ||
F | "C"ECEG "F"cGAF | "C"ECEG "G7"FDDF | "C"ECEG "Am"cdec | "G7"defd    "C"ecc |]
